X:650
T:Warped Road to Lisdoonvarna, The
S:Nigel Gatherer
Z:Nigel Gatherer
M:7/8
L:1/8
K:D
DAAD AB=c|BEGE =cEE|DAAD AB=c|GEAG FDD:|
defd =cAA|BGGB =cAA|defd =cAA|BGAG FDD:|
